colorful-battery-indicator@aneruam/icons/battery-full.svg

<?xml version="1.0" encoding="UTF-8" standalone="no"?>
<svg
   xmlns:dc="http://purl.org/dc/elements/1.1/"
   xmlns:cc="http://creativecommons.org/ns#"
   xmlns:rdf="http://www.w3.org/1999/02/22-rdf-syntax-ns#"
   xmlns:svg="http://www.w3.org/2000/svg"
   xmlns="http://www.w3.org/2000/svg"
   xmlns:sodipodi="http://sodipodi.sourceforge.net/DTD/sodipodi-0.dtd"
   xmlns:inkscape="http://www.inkscape.org/namespaces/inkscape"
   viewBox="0 0 16 16"
   version="1.1"
   id="svg4"
   sodipodi:docname="battery-full-charged-symbolic.svg"
   inkscape:version="1.0.2 (e86c870879, 2021-01-15)">
   <metadata
      id="metadata10">
      <rdf:RDF>
         <cc:Work
            rdf:about="">
            <dc:format>image/svg+xml</dc:format>
            <dc:type
               rdf:resource="http://purl.org/dc/dcmitype/StillImage" />
         </cc:Work>
      </rdf:RDF>
   </metadata>
   <defs
      id="defs8" />
   <sodipodi:namedview
      pagecolor="#ffffff"
      bordercolor="#666666"
      borderopacity="1"
      objecttolerance="10"
      gridtolerance="10"
      guidetolerance="10"
      inkscape:pageopacity="0"
      inkscape:pageshadow="2"
      inkscape:window-width="1366"
      inkscape:window-height="738"
      id="namedview6"
      showgrid="false"
      inkscape:zoom="36.75"
      inkscape:cx="8"
      inkscape:cy="7.9863946"
      inkscape:window-x="0"
      inkscape:window-y="0"
      inkscape:window-maximized="1"
      inkscape:current-layer="svg4" />
   <g transform="translate(1.6,0) scale(0.8,1)">
      <path
         d="m 5 0 l 0 2 l -3 0 l 0 14 l 12 0 l 0 -14 l -3 0 l 0 -2 l -6 0 z m 6.125 5 l 1.875 1.844 l -6.25 6.156 c -1.282 -1.262 -2.468 -2.425 -3.75 -3.688 l 1.875 -1.844 l 1.875 1.844 l 4.375 -4.313 z"
         style="fill:#bebebe;fill-opacity:1"
         id="path2" />
      <path
         style="fill:#00cc10;stroke-width:0.0272109;fill-opacity:1"
         d="M 2.0136054,8.9931973 V 2 H 3.5102041 5.0068027 V 1.0068027 0.01360544 H 8 10.993197 V 1.0068027 2 h 1.496599 1.496599 V 8.9931973 15.986395 H 8 2.0136054 Z M 11.503401,8.3395687 c 0.826871,-0.8136805 1.503402,-1.4875546 1.503402,-1.4974977 0,-0.00994 -0.423234,-0.4320574 -0.940519,-0.9380318 L 11.125766,4.984086 10.862202,5.2418231 C 10.717243,5.3835788 9.7328634,6.3539156 8.6746925,7.3981276 L 6.7507456,9.2966947 5.8284541,8.3830411 C 5.321194,7.8805317 4.8942313,7.4693878 4.8796484,7.4693878 c -0.035973,0 -1.8907132,1.8248408 -1.8807476,1.8504288 0.00435,0.011159 0.8503053,0.8492994 1.8799093,1.8625334 l 1.8720076,1.842245 1.624591,-1.602803 C 9.2689339,10.54025 10.676531,9.1532493 11.503401,8.3395687 Z"
         id="path835" />
      <path
         style="fill:#22d43a;fill-opacity:1;stroke-width:0.0272109"
         d="M 2.0136054,8.9931973 V 2 H 3.5102041 5.0068027 V 1.0068027 0.01360544 H 8 10.993197 V 1.0068027 2 h 1.496599 1.496599 V 8.9931973 15.986395 H 8 2.0136054 Z M 11.734694,8.1256125 c 0.69966,-0.6960487 1.272109,-1.2779442 1.272109,-1.2931012 0,-0.03165 -1.847875,-1.8529195 -1.879987,-1.8529195 -0.01164,0 -0.722997,0.6918368 -1.5807844,1.537415 C 8.6882444,7.362585 7.7081192,8.3286539 7.3679755,8.6638261 L 6.7495328,9.2732305 5.8362512,8.3713091 C 5.3339464,7.8752525 4.9047948,7.4693878 4.8825807,7.4693878 c -0.0723,0 -1.8893834,1.7880084 -1.8893834,1.8591521 0,0.00771 0.8457215,0.8483041 1.8793812,1.8679891 l 1.879381,1.853973 1.8553129,-1.829673 C 9.6276944,10.214508 11.035034,8.821661 11.734694,8.1256125 Z"
         id="path837" />
   </g>
</svg>

<svg xmlns="http://www.w3.org/2000/svg" viewBox="0 0 16 16">
    <path d="M5 0v2H2v14h12V2h-3V0zm6.125 5L13 6.844 6.75 13C5.468 11.738 4.282 10.575 3 9.312l1.875-1.844L6.75 9.312l4.375-4.313z" style="fill:#bebebe;fill-opacity:1" transform="matrix(.8 0 0 1 1.6 0)"/>
    <path d="M2.014 8.993V2h2.993V.014h5.986V2h2.993v13.986H2.014Zm9.49-.653a89 89 0 0 0 1.503-1.498c0-.01-.423-.432-.94-.938l-.941-.92-.264.258c-.145.142-1.13 1.112-2.187 2.156L6.75 9.297l-.923-.914c-.507-.502-.934-.914-.948-.914-.036 0-1.891 1.825-1.881 1.85.004.012.85.85 1.88 1.863l1.872 1.843 1.624-1.603z" style="fill:#00cc10;stroke-width:.0272109;fill-opacity:1" transform="matrix(.8 0 0 1 1.6 0)"/>
    <path d="M2.014 8.993V2h2.993V.014h5.986V2h2.993v13.986H2.014Zm9.72-.867c.7-.696 1.273-1.278 1.273-1.293 0-.032-1.848-1.853-1.88-1.853-.012 0-.723.691-1.581 1.537L7.368 8.664l-.618.61-.914-.903c-.502-.496-.931-.902-.953-.902-.073 0-1.89 1.788-1.89 1.86 0 .007.846.848 1.88 1.868l1.879 1.854 1.855-1.83c1.02-1.006 2.428-2.4 3.128-3.095" style="fill:#22d43a;fill-opacity:1;stroke-width:.0272109" transform="matrix(.8 0 0 1 1.6 0)"/>
</svg>
